pix/i/marked.svg

<!DOCTYPE svg PUBLIC "-//W3C//DTD SVG 1.1//EN" "http://www.w3.org/Graphics/SVG/1.1/DTD/svg11.dtd" [
	<!ENTITY ns_flows "http://ns.adobe.com/Flows/1.0/">
]><svg xmlns="http://www.w3.org/2000/svg" width="16" height="16" viewBox="-1.2 0 16 16" preserveAspectRatio="xMinYMid meet" overflow="visible"><path d="M4.2 15l5.4-.4c-.2.5-.5 1.2-.8 1.2 0 0-.7.2-2 .2s-2-.2-2-.2c-.2 0-.4-.3-.6-.8zm-.3-.9l6-.5c.1-.3.3-.8.5-1l-6.8.5c.2.5.3 1 .3 1zm9.8-7.3c0 1.8-1.3 3.6-2.3 4.6l-8.5.7c-.7-.6-2.9-3-2.9-5.3C0 3.1 3.1 0 6.8 0c3.8 0 6.9 3.1 6.9 6.8zM7 3.1c-.6-.6-1.8-.4-2.7.5s-1.2 2.1-.6 2.7c.6.6 1.8.3 2.7-.6s1.2-2 .6-2.6z" fill="#999"/></svg>

<?xml version="1.0" encoding="utf-8"?>
<!-- Generator: Adobe Illustrator 15.1.0, SVG Export Plug-In  -->
<!DOCTYPE svg PUBLIC "-//W3C//DTD SVG 1.1//EN" "http://www.w3.org/Graphics/SVG/1.1/DTD/svg11.dtd" [
	<!ENTITY ns_flows "http://ns.adobe.com/Flows/1.0/">
]>
<svg version="1.1"
	 xmlns="http://www.w3.org/2000/svg" xmlns:xlink="http://www.w3.org/1999/xlink" xmlns:a="http://ns.adobe.com/AdobeSVGViewerExtensions/3.0/"
	 x="0px" y="0px" width="16px" height="16px" viewBox="-1.2 0 16 16" style="overflow:visible;enable-background:new -1.2 0 16 16;"
	 xml:space="preserve" preserveAspectRatio="xMinYMid meet">
<defs>
</defs>
<path style="fill:#999999;" d="M4.2,15l5.4-0.4c-0.2,0.5-0.5,1.2-0.8,1.2c0,0-0.7,0.2-2,0.2s-2-0.2-2-0.2C4.6,15.8,4.4,15.5,4.2,15z
	 M3.9,14.1L3.9,14.1l6-0.5c0.1-0.3,0.3-0.8,0.5-1l-6.8,0.5C3.8,13.6,3.9,14.1,3.9,14.1z M13.7,6.8c0,1.8-1.3,3.6-2.3,4.6l-8.5,0.7
	C2.2,11.5,0,9.1,0,6.8C0,3.1,3.1,0,6.8,0C10.6,0,13.7,3.1,13.7,6.8z M7,3.1C6.4,2.5,5.2,2.7,4.3,3.6S3.1,5.7,3.7,6.3
	c0.6,0.6,1.8,0.3,2.7-0.6S7.6,3.7,7,3.1z"/>
</svg>
